packages/Snapp/src/DeleteIcon/index.svg

<?xml version="1.0" encoding="UTF-8"?>
<svg width="24px" height="24px" viewBox="0 0 24 24" version="1.1" xmlns="http://www.w3.org/2000/svg" xmlns:xlink="http://www.w3.org/1999/xlink">
    <title>Icons/24/Delete</title>
    <g id="Icons/24/Delete" stroke="none" stroke-width="1" fill="none" fill-rule="evenodd">
        <rect id="Container" fill-opacity="0" fill="#D8D8D8" fill-rule="nonzero" x="0" y="0" width="24" height="24"></rect>
        <path d="M19,4 C20.6568542,4 22,5.34314575 22,7 L22,17 C22,18.6568542 20.6568542,20 19,20 L9,20 C8.70807511,20 8.4307256,19.8724373 8.2407434,19.6507914 L2.2407434,12.6507914 C1.9197522,12.2763016 1.9197522,11.7236984 2.2407434,11.3492086 L8.2407434,4.34920863 C8.4307256,4.12756273 8.70807511,4 9,4 L19,4 Z M9.45993492,18 L19,18 C19.5522847,18 20,17.5522847 20,17 L20,7 C20,6.44771525 19.5522847,6 19,6 L9.45993492,6 L4.31707778,12 L9.45993492,18 Z M15.2426407,11.8284271 L17.363961,13.9497475 C17.7544853,14.3402718 17.7544853,14.9734367 17.363961,15.363961 C16.9734367,15.7544853 16.3402718,15.7544853 15.9497475,15.363961 L13.8284271,13.2426407 L11.7071068,15.363961 C11.3165825,15.7544853 10.6834175,15.7544853 10.2928932,15.363961 C9.90236893,14.9734367 9.90236893,14.3402718 10.2928932,13.9497475 L12.4142136,11.8284271 L10.2928932,9.70710678 C9.90236893,9.31658249 9.90236893,8.68341751 10.2928932,8.29289322 C10.6834175,7.90236893 11.3165825,7.90236893 11.7071068,8.29289322 L13.8284271,10.4142136 L15.9497475,8.29289322 C16.3402718,7.90236893 16.9734367,7.90236893 17.363961,8.29289322 C17.7544853,8.68341751 17.7544853,9.31658249 17.363961,9.70710678 L15.2426407,11.8284271 Z" id="Shape" fill="#404040" fill-rule="nonzero"></path>
    </g>
</svg>

<svg viewBox="0 0 24 24" xmlns="http://www.w3.org/2000/svg" fill="currentColor" focusable="false">
  <path d="M19 4a3 3 0 013 3v10a3 3 0 01-3 3H9a1 1 0 01-.76-.35l-6-7a1 1 0 010-1.3l6-7A1 1 0 019 4h10zM9.46 18H19a1 1 0 001-1V7a1 1 0 00-1-1H9.46l-5.143 6 5.143 6zm5.783-6.172l2.121 2.122a1 1 0 11-1.414 1.414l-2.122-2.121-2.12 2.121a1 1 0 01-1.415-1.414l2.121-2.122-2.121-2.12a1 1 0 011.414-1.415l2.121 2.121 2.122-2.121a1 1 0 111.414 1.414l-2.121 2.121z"/>
</svg>
